Yaru++/apps/scalable/peruse.svg

<svg enable-background="new" height="256" viewBox="0 0 256 256" width="256" xmlns="http://www.w3.org/2000/svg" xmlns:xlink="http://www.w3.org/1999/xlink">
  <filter id="filter879" color-interpolation-filters="sRGB" height="1.024" width="1.024" x="-.01" y="-.01">
    <feGaussianBlur stdDeviation=".4"/>
  </filter>
  <filter id="filter897" color-interpolation-filters="sRGB" height="1.096" width="1.096" x="-.05" y="-.05">
    <feGaussianBlur stdDeviation="1.6"/>
  </filter>
  <g transform="translate(51.00001 -28.999999)">
    <g fill="#030006" transform="matrix(-2.85 0 0 2.85 213.74398 -470.44381)">
      <g enable-background="new" filter="url(#filter897)" opacity=".1">
        <path d="m24.000059 233.99999v25.99995l25.999924-25.99995z" fill-rule="evenodd"/>
        <rect height="64" rx="8" width="80" x="8" y="180"/>
      </g>
      <g enable-background="new" filter="url(#filter879)" opacity=".1">
        <path d="m24.000059 233.99999v25.99995l25.999924-25.99995z" fill-rule="evenodd"/>
        <rect height="64" rx="8" width="80" x="8" y="180"/>
      </g>
      <g enable-background="new" opacity=".1">
        <path d="m24.000059 233.99999v25.99995l25.999924-25.99995z" fill-rule="evenodd"/>
        <rect height="64" rx="8" width="80" x="8" y="180"/>
      </g>
    </g>
    <g enable-background="new" fill="#7b519c" transform="matrix(-2.8 0 0 2.8 211.34398 -459.44381)">
      <path d="m24.000059 233.99999v25.99995l25.999924-25.99995z" fill="#7b519c" fill-rule="evenodd"/>
      <g transform="matrix(-.35714286 0 0 .35714286 93.694282 174.44422)">
        <path d="m38.34375 15.556641c-12.4096 0-22.400391 9.99079-22.400391 22.40039v134.398439c0 12.4096 9.990791 22.40039 22.400391 22.40039h112l44.80078 44.80078v-44.80078h22.40039c12.4096 0 22.39844-9.99079 22.39844-22.40039v-134.398439c0-12.4096-9.98884-22.40039-22.39844-22.40039z" fill="#7b519c"/>
        <path d="m38.34375 15.556641c-12.4096 0-22.400391 9.99079-22.400391 22.40039v134.398439c0 12.4096 9.990791 22.40039 22.400391 22.40039h112l44.80078 44.80078v-44.80078h22.40039c12.4096 0 22.39844-9.99079 22.39844-22.40039v-134.398439c0-12.4096-9.98884-22.40039-22.39844-22.40039z" fill="#3a76a2"/>
      </g>
    </g>
    <g enable-background="new" transform="matrix(.49038658137 0 0 .49038658137 -411.75013623564 150.34013377192)">
      <path d="m239.94336 148.30078v-110.343749c0-1.5512-.15575-3.064567-.45313-4.52539-.29737-1.460824-.7356-2.868117-1.30078-4.208985s-1.25712-2.615305-2.06054-3.80664c-.80343-1.191336-1.71837-2.300276-2.73047-3.3125-1.01211-1.012225-2.12128-1.926934-3.3125-2.730469s-2.46587-1.495279-3.80664-2.060547c-1.34078-.565268-2.74822-1.005311-4.20899-1.302734s-2.97419-.453125-4.52539-.453125h-85.68554c-4.81167 17.261111-25.47461 93.587889-25.47461 93.587889s107.31066 32.07789 133.55859 39.15625z" fill="#bbc91b" transform="matrix(2.0392075 0 0 2.0392075 735.64437 -247.43769)"/>
      <path d="m1197.1297-181.2016c-.148-.2239-.2522-.50342-.4022-.72491-2.4237-3.57674-5.113-6.83744-8.0896-9.81018-2.9765-2.97274-6.241-5.65719-9.8221-8.07757-3.064-2.07086-6.4797-3.85872-10.0213-5.5603-33.4546.95077-78.1419 5.08407-118.487 23.54763-22.2185 10.16808-43.5645 35.62585-32.6727 46.72883 10.8918 11.10311 32.8661-5.49337 65.3495-17.16683 40.3983-14.518 83.524-23.66932 114.1454-28.93667z" fill="#6c5548"/>
      <path d="m1110.7736-150.30009c-38.206 0-79.9181 54.771304-79.9181 94.65737 0 22.4373 49.0325 28.74312 85.9725 33.65092 37.9005 5.03532 75.2198-27.41585 75.2198-67.30182 0-2.917466-.2845-5.703306-.7264-8.419026v-.027c-.022-.12954-.052-.25043-.073-.37949-.0009-.005-.022-.0226-.026-.027-5.3854-31.336234-38.964-48.863434-71.7325-51.550914-.031-.003-.064-.0226-.097-.0226-2.8807-.23192-5.7729-.58032-8.6206-.58032z" fill="#fff"/>
      <path d="m1120.5817-149.5453c-10.9377 6.94063-18.0636 19.46577-18.0852 33.57218-.01 21.689434 16.0331 39.28657 35.8206 39.28734 19.7874-.00077 35.8263-17.597906 35.8205-39.28734-.01-2.85542-.5117-8.7337-1.0844-12.90408-13.7268-11.89446-33.1261-18.88902-52.4715-20.6681z" fill="#583268"/>
      <g transform="matrix(.88380793 0 0 .88380793 775.19381 -260.10444)">
        <path d="m-8.0237196 211.57879c-.00965 2.09587-.1379477 3.63493-.1379477 5.78618v45.21265c4.5178012 5.55799 53.7803893 60.13285 173.9604073 51.93878l60.86644-208.16174c-92.5526 112.26687-224.1632144 105.91819-234.6889024 105.22413z" fill="#9f3f32"/>
        <path d="m155.86112 189.16965c-9.54392.0515-23.74143 16.3617-13.06035 24.30039 11.70283 8.69825 8.5669 18.10886 2.70791 20.56292-5.85904 2.45432-14.76969.25946-15.53219-14.39671-.72592-13.94147-15.47941-22.29607-29.38328-1.44892-.858797 2.2077-1.500579 4.43899-1.805113 6.6709-2.747128 20.13585 16.562733 39.84429 36.315583 42.6447 19.75294 2.80055 43.06947-14.7635 45.81664-34.89944 2.38792-17.50269-9.05561-36.83003-25.05894-43.43375zm-50.75001 20.6575c-.52032.74646-.8638 1.53614-1.3316 2.29996z" fill="#4d2f2b"/>
        <path d="m226.66441 98.150239c-64.52955 69.051561-135.04074 92.912821-189.42894 105.911431 6.065996 7.29521 16.380668 16.15007 31.171526 16.15007 25.074352 0 37.611524-12.78026 37.611524-12.78026s32.76609 8.11779 75.22311-25.56051c14.62245-11.59911 24.87683-25.70978 32.34689-39.28933z" fill="#dee3e3"/>
        <path d="m53.246094 127.26953c1.552297.36694 2.866109.84064 4.527344 1.15235 2.339238.43892 4.787677.81971 7.347656 1.1289s5.23132.54733 8.017578.70313c2.786258.15579 5.687002.22828 8.705078.20703 3.018076-.02126 6.154723-.13742 9.410156-.35938l7.56836-26.16601c-4.014126 1.64109-8.906965 3.80477-16.087891 7.46484-11.814856 6.02198-22.597573 10.30589-29.488281 15.86914z" fill="#e05e4c" transform="matrix(2.3072971 0 0 2.3072971 -44.74891 14.331989)"/>
        <path d="m86.736328 15.556641h-48.392578c-1.5512 0-3.064567.155701-4.525391.453125-.07657.01559-.144421.05199-.220703.06836 1.611031 10.530389 4.589425 21.754565 7.654297 27.166016 7.309298 12.905623 17.189478 12.136553 29.849609 4.685547 12.131197-7.140405 21.309125-19.958585 15.634766-32.373047z" fill="#54d883" transform="matrix(2.2997201 0 0 2.2997201 -43.857595 14.449868)"/>
      </g>
      <path d="m82.847656 194.75586h67.496094l44.80078 44.80078v-44.80078h22.40039c1.5512 0 3.06462-.1557 4.52539-.45313 1.46077-.29742 2.86821-.73746 4.20899-1.30273 1.34077-.56527 2.61542-1.25701 3.80664-2.06055 1.19122-.80353 2.30039-1.71824 3.3125-2.73047 1.0121-1.01222 1.92705-2.12116 2.73047-3.3125.80342-1.19133 1.49537-2.46381 2.06054-3.80468.56518-1.34087 1.00341-2.75012 1.30078-4.21094s.45313-2.97419.45313-4.52539v-24.18945l-133.55859-39.02149z" fill="#3e7952" transform="matrix(2.0392075 0 0 2.0392075 735.64437 -247.43769)"/>
      <path d="m139.39648 15.556641h-18.18359l-46.730468 179.199219h18.195312z" fill="#fff" transform="matrix(2.0392075 0 0 2.0392075 735.64437 -247.43769)"/>
      <path d="m134.16602 194.75586h16.17773l29.72266 29.72266c1.07703-.05181 2.46166-.02556 3.49804-.08985 3.21218-.19924 6.22992-.46044 9.06641-.79492.89415-.10544 1.65539-.27016 2.51367-.39063v-28.44726h22.40039c1.5512 0 3.06462-.1557 4.52539-.45313.24742-.05037.4686-.16222.71289-.2207 3.30156-2.95046 10.16228-8.92319 10.85157-10.46484.28015-.62673.40904-1.36523.41796-2.10938.00589-.02854.0078-.05352.01172-.08203-.00588-2.30427-1.2728-4.68823-3.62695-4.38672-1.0483.13425-2.41622.77048-4.18945 2.12305-3.2089 2.44756-12.65004 7.51238-16.7461 10.5957 4.28186-6.76774 12.7642-17.36631 15.0293-20.91406 2.37288-3.71648 6.75194-11.30227 7.47266-16.01172l-7.14063-2.8457c-2.43276 1.72713-5.28525 4.92266-8.90234 9.6289-7.0933 9.22913-15.66099 22.91345-18.02539 21.00391-2.3644-1.90946 7.38902-16.22786 11.82226-25.45703 1.57483-3.27855 3.10242-6.45874 4.3711-9.48047l-11.67383-4.66016c-2.4283 3.56226-4.51988 7.45393-5.70117 9.99805-2.95551 6.36496-10.64278 24.82773-13.30274 23.87305-2.66-.95475 1.76989-16.86831 6.20313-25.7793 1.82831-3.67494 3.62073-7.59324 4.94531-11.24805l-11.24609-4.5c-2.42428 3.62767-4.98918 8.426-7.58985 14.47461-7.3888 17.18542-11.82184 35.64424-17.4375 35.00782-5.61541-.63665-9.86291-6.55111-12.97461-10.38672-3.1117-3.83559-6.99957-11.40897-10.84179-13.63672-3.84213-2.22776-4.72014-1.59166-6.78907-1.27344-2.06885.31854-3.11127-.40297-4.14648 2.54688-1.03509 2.94964 4.34256 9.4999 5.82031 14.91015 1.11958 4.09892 3.68501 13.79251 4.77149 19.74805z" fill="#ffc169" transform="matrix(2.0392075 0 0 2.0392075 735.64437 -247.43771)"/>
      <path d="m239.94336 156.37891v-18.6836l-130.36133-35.89062-4.54687 17.43164z" fill="#fff" transform="matrix(2.0392075 0 0 2.0392075 735.64437 -247.43769)"/>
      <path d="m1178.4373-214.79855c25.3058 0 45.6791 20.37329 45.6791 45.67904v4.07839c0-25.30575-20.3733-45.67905-45.6791-45.67905h-365.42838c-25.30575 0-45.67505 20.3733-45.67505 45.67905v-4.07839c0-25.30575 20.3693-45.67904 45.67505-45.67904z" fill="#f0f0f0" fill-rule="evenodd" opacity=".3"/>
    </g>
    <path d="m188.94335 199.35546v2.00002c0 12.4096-9.99079 22.40039-22.40041 22.40039h-22.40037v-2.00002h22.40037c12.40962 0 22.40041-9.99078 22.40041-22.40039zm-224.000008 0c0 12.40961 9.988861 22.40039 22.398461 22.40039h112.001939l44.798828 44.79883v2.00001l-44.798828-44.79882h-112.001939c-12.4096 0-22.398461-9.99079-22.398461-22.40039z" fill-rule="evenodd" opacity=".2"/>
  </g>
</svg>

<svg xmlns="http://www.w3.org/2000/svg" style="enable-background:new" width="256" height="256" version="1.0" viewBox="0 0 256 256">
 <title id="title4162">
  Adwaita Icon Template
 </title>
 <defs>
  <clipPath id="clipPath9814-1" clipPathUnits="userSpaceOnUse">
   <path style="fill:#ffffff;fill-rule:evenodd" d="M 596.05078,612 C 591.59109,612 588,615.59109 588,620.05078 v 15.89844 c 0,4.44257 3.56412,8.0214 8,8.04883 V 652 l 8,-8 h 19.94922 C 628.40891,644 632,640.40891 632,635.94922 V 620.05078 C 632,615.59109 628.40891,612 623.94922,612 Z"/>
  </clipPath>
  <filter style="color-interpolation-filters:sRGB" id="filter879" width="1.024" height="1.024" x="-.01" y="-.01">
   <feGaussianBlur id="feGaussianBlur881" stdDeviation=".4"/>
  </filter>
  <filter style="color-interpolation-filters:sRGB" id="filter897" width="1.096" height="1.096" x="-.05" y="-.05">
   <feGaussianBlur id="feGaussianBlur899" stdDeviation="1.6"/>
  </filter>
  <filter id="filter4569" width="1.023" height="1.025" x="-.01" y="-.01" style="color-interpolation-filters:sRGB">
   <feGaussianBlur id="feGaussianBlur1582" stdDeviation="1.16"/>
  </filter>
  <filter id="filter910" width="1.046" height="1.05" x="-.02" y="-.03" style="color-interpolation-filters:sRGB">
   <feGaussianBlur id="feGaussianBlur1579" stdDeviation="2.32"/>
  </filter>
  <linearGradient id="linearGradient1108" x1="296" x2="296" y1="-212" y2="202.4" gradientUnits="userSpaceOnUse">
   <stop style="stop-color:#ffffff" id="stop1569" offset="0"/>
   <stop style="stop-color:#ffffff;stop-opacity:.09803922" id="stop1571" offset=".135"/>
   <stop style="stop-color:#ffffff;stop-opacity:0" id="stop1573" offset="1"/>
  </linearGradient>
  <clipPath id="clipPath1082-3-3675">
   <path style="fill:#8c59d9" d="M 361.9375,-212 C 507.2348,-212 528,-191.28677 528,-46.125 V 70.125 C 528,215.28618 507.2348,236 361.9375,236 H 214.0625 C 68.7652,236 48,215.28618 48,70.125 V -46.125 C 48,-191.28677 68.7652,-212 214.0625,-212 Z"/>
  </clipPath>
 </defs>
 <g id="layer1" transform="translate(0,-44)">
  <g id="layer9">
   <g transform="translate(51.00001,15.000001)">
    <g transform="matrix(-2.85,0,0,2.85,213.74398,-470.44381)" style="opacity:0.1;fill:#030006;filter:url(#filter897);enable-background:new">
     <path d="m 24.000059,233.99999 v 25.99995 l 25.999924,-25.99995 z" style="fill:#030006;fill-rule:evenodd"/>
     <rect width="80" height="64" x="8" y="180" rx="8" ry="8" style="fill:#030006"/>
    </g>
    <g style="opacity:0.1;fill:#030006;filter:url(#filter879);enable-background:new" transform="matrix(-2.85,0,0,2.85,213.74398,-470.44381)">
     <path style="fill:#030006;fill-rule:evenodd" d="m 24.000059,233.99999 v 25.99995 l 25.999924,-25.99995 z"/>
     <rect style="fill:#030006" width="80" height="64" x="8" y="180" rx="8" ry="8"/>
    </g>
    <g transform="matrix(-2.85,0,0,2.85,213.74398,-470.44381)" style="opacity:0.1;fill:#030006;enable-background:new">
     <path d="m 24.000059,233.99999 v 25.99995 l 25.999924,-25.99995 z" style="fill:#030006;fill-rule:evenodd"/>
     <rect width="80" height="64" x="8" y="180" rx="8" ry="8" style="fill:#030006"/>
    </g>
    <g style="fill:#7b519c;enable-background:new" transform="matrix(-2.8,0,0,2.8,211.34398,-459.44381)">
     <path style="fill:#7b519c;fill-rule:evenodd" d="m 24.000059,233.99999 v 25.99995 l 25.999924,-25.99995 z"/>
     <path style="fill:#7b519c" d="M 38.34375 15.556641 C 25.93415 15.556641 15.943359 25.547431 15.943359 37.957031 L 15.943359 172.35547 C 15.943359 184.76507 25.93415 194.75586 38.34375 194.75586 L 150.34375 194.75586 L 195.14453 239.55664 L 195.14453 194.75586 L 217.54492 194.75586 C 229.95452 194.75586 239.94336 184.76507 239.94336 172.35547 L 239.94336 37.957031 C 239.94336 25.547431 229.95452 15.556641 217.54492 15.556641 L 38.34375 15.556641 z" transform="matrix(-0.35714286,0,0,0.35714286,93.694282,174.44422)"/>
     <path d="M 38.34375 15.556641 C 25.93415 15.556641 15.943359 25.547431 15.943359 37.957031 L 15.943359 172.35547 C 15.943359 184.76507 25.93415 194.75586 38.34375 194.75586 L 150.34375 194.75586 L 195.14453 239.55664 L 195.14453 194.75586 L 217.54492 194.75586 C 229.95452 194.75586 239.94336 184.76507 239.94336 172.35547 L 239.94336 37.957031 C 239.94336 25.547431 229.95452 15.556641 217.54492 15.556641 L 38.34375 15.556641 z" transform="matrix(-0.35714286,0,0,0.35714286,93.694282,174.44422)" style="fill:#3a76a2"/>
    </g>
    <g transform="matrix(3.7797136,0,0,3.7797136,-426.24338,-710.88065)">
     <g style="enable-background:new" transform="matrix(0.12974173,0,0,0.12974173,3.8344818,227.85345)">
      <path style="fill:#bbc91b" d="M 239.94336,148.30078 V 37.957031 c 0,-1.5512 -0.15575,-3.064567 -0.45313,-4.52539 -0.29737,-1.460824 -0.7356,-2.868117 -1.30078,-4.208985 -0.56518,-1.340868 -1.25712,-2.615305 -2.06054,-3.80664 -0.80343,-1.191336 -1.71837,-2.300276 -2.73047,-3.3125 -1.01211,-1.012225 -2.12128,-1.926934 -3.3125,-2.730469 -1.19122,-0.803535 -2.46587,-1.495279 -3.80664,-2.060547 -1.34078,-0.565268 -2.74822,-1.005311 -4.20899,-1.302734 -1.46077,-0.297423 -2.97419,-0.453125 -4.52539,-0.453125 h -85.68554 c -4.81167,17.261111 -25.47461,93.587889 -25.47461,93.587889 0,0 107.31066,32.07789 133.55859,39.15625 z" transform="matrix(2.0392075,0,0,2.0392075,735.64437,-247.43769)"/>
      <path style="fill:#6c5548" d="m 1197.1297,-181.2016 c -0.148,-0.2239 -0.2522,-0.50342 -0.4022,-0.72491 -2.4237,-3.57674 -5.113,-6.83744 -8.0896,-9.81018 -2.9765,-2.97274 -6.241,-5.65719 -9.8221,-8.07757 -3.064,-2.07086 -6.4797,-3.85872 -10.0213,-5.5603 -33.4546,0.95077 -78.1419,5.08407 -118.487,23.54763 -22.2185,10.16808 -43.5645,35.62585 -32.6727,46.72883 10.8918,11.10311 32.8661,-5.49337 65.3495,-17.16683 40.3983,-14.518 83.524,-23.66932 114.1454,-28.93667 z"/>
      <path style="fill:#ffffff" d="m 1110.7736,-150.30009 c -38.206,0 -79.9181,54.771304 -79.9181,94.65737 0,22.4373 49.0325,28.74312 85.9725,33.65092 37.9005,5.03532 75.2198,-27.41585 75.2198,-67.30182 0,-2.917466 -0.2845,-5.703306 -0.7264,-8.419026 v -0.027 c -0.022,-0.12954 -0.052,-0.25043 -0.073,-0.37949 -9e-4,-0.005 -0.022,-0.0226 -0.026,-0.027 -5.3854,-31.336234 -38.964,-48.863434 -71.7325,-51.550914 -0.031,-0.003 -0.064,-0.0226 -0.097,-0.0226 -2.8807,-0.23192 -5.7729,-0.58032 -8.6206,-0.58032 z"/>
      <path style="fill:#583268" d="m 1120.5817,-149.5453 c -10.9377,6.94063 -18.0636,19.46577 -18.0852,33.57218 -0.01,21.689434 16.0331,39.28657 35.8206,39.28734 19.7874,-7.7e-4 35.8263,-17.597906 35.8205,-39.28734 -0.01,-2.85542 -0.5117,-8.7337 -1.0844,-12.90408 -13.7268,-11.89446 -33.1261,-18.88902 -52.4715,-20.6681 z"/>
      <g transform="matrix(0.88380793,0,0,0.88380793,775.19381,-260.10444)">
       <path d="m -8.0237196,211.57879 c -0.00965,2.09587 -0.1379477,3.63493 -0.1379477,5.78618 v 45.21265 c 4.5178012,5.55799 53.7803893,60.13285 173.9604073,51.93878 L 226.66518,106.35466 C 134.11258,218.62153 2.5019656,212.27285 -8.0237224,211.57879 Z" style="fill:#9f3f32"/>
       <path d="m 155.86112,189.16965 c -9.54392,0.0515 -23.74143,16.3617 -13.06035,24.30039 11.70283,8.69825 8.5669,18.10886 2.70791,20.56292 -5.85904,2.45432 -14.76969,0.25946 -15.53219,-14.39671 -0.72592,-13.94147 -15.47941,-22.29607 -29.38328,-1.44892 -0.858797,2.2077 -1.500579,4.43899 -1.805113,6.6709 -2.747128,20.13585 16.562733,39.84429 36.315583,42.6447 19.75294,2.80055 43.06947,-14.7635 45.81664,-34.89944 2.38792,-17.50269 -9.05561,-36.83003 -25.05894,-43.43375 z m -50.75001,20.6575 c -0.52032,0.74646 -0.8638,1.53614 -1.3316,2.29996 z" style="fill:#4d2f2b"/>
       <path d="M 226.66441,98.150239 C 162.13486,167.2018 91.62367,191.06306 37.23547,204.06167 c 6.065996,7.29521 16.380668,16.15007 31.171526,16.15007 25.074352,0 37.611524,-12.78026 37.611524,-12.78026 0,0 32.76609,8.11779 75.22311,-25.56051 14.62245,-11.59911 24.87683,-25.70978 32.34689,-39.28933 z" style="fill:#dee3e3"/>
       <path style="fill:#e05e4c" d="M 53.246094 127.26953 C 54.798391 127.63647 56.112203 128.11017 57.773438 128.42188 C 60.112676 128.8608 62.561115 129.24159 65.121094 129.55078 C 67.681073 129.85997 70.352414 130.09811 73.138672 130.25391 C 75.92493 130.4097 78.825674 130.48219 81.84375 130.46094 C 84.861826 130.43968 87.998473 130.32352 91.253906 130.10156 L 98.822266 103.93555 C 94.80814 105.57664 89.915301 107.74032 82.734375 111.40039 C 70.919519 117.42237 60.136802 121.70628 53.246094 127.26953 z" transform="matrix(2.3072971,0,0,2.3072971,-44.74891,14.331989)"/>
       <path style="fill:#54d883" d="M 86.736328,15.556641 H 38.34375 c -1.5512,0 -3.064567,0.155701 -4.525391,0.453125 -0.07657,0.01559 -0.144421,0.05199 -0.220703,0.06836 1.611031,10.530389 4.589425,21.754565 7.654297,27.166016 7.309298,12.905623 17.189478,12.136553 29.849609,4.685547 12.131197,-7.140405 21.309125,-19.958585 15.634766,-32.373047 z" transform="matrix(2.2997201,0,0,2.2997201,-43.857595,14.449868)"/>
      </g>
      <path style="fill:#3e7952" d="m 82.847656,194.75586 h 67.496094 l 44.80078,44.80078 v -44.80078 h 22.40039 c 1.5512,0 3.06462,-0.1557 4.52539,-0.45313 1.46077,-0.29742 2.86821,-0.73746 4.20899,-1.30273 1.34077,-0.56527 2.61542,-1.25701 3.80664,-2.06055 1.19122,-0.80353 2.30039,-1.71824 3.3125,-2.73047 1.0121,-1.01222 1.92705,-2.12116 2.73047,-3.3125 0.80342,-1.19133 1.49537,-2.46381 2.06054,-3.80468 0.56518,-1.34087 1.00341,-2.75012 1.30078,-4.21094 0.29737,-1.46082 0.45313,-2.97419 0.45313,-4.52539 V 148.16602 L 106.38477,109.14453 Z" transform="matrix(2.0392075,0,0,2.0392075,735.64437,-247.43769)"/>
      <path style="fill:#ffffff" d="M 139.39648,15.556641 H 121.21289 L 74.482422,194.75586 h 18.195312 z" transform="matrix(2.0392075,0,0,2.0392075,735.64437,-247.43769)"/>
      <path style="fill:#ffc169" d="M 134.16602 194.75586 L 150.34375 194.75586 L 180.06641 224.47852 C 181.14344 224.42671 182.52807 224.45296 183.56445 224.38867 C 186.77663 224.18943 189.79437 223.92823 192.63086 223.59375 C 193.52501 223.48831 194.28625 223.32359 195.14453 223.20312 L 195.14453 194.75586 L 217.54492 194.75586 C 219.09612 194.75586 220.60954 194.60016 222.07031 194.30273 C 222.31773 194.25236 222.53891 194.14051 222.7832 194.08203 C 226.08476 191.13157 232.94548 185.15884 233.63477 183.61719 C 233.91492 182.99046 234.04381 182.25196 234.05273 181.50781 C 234.05862 181.47927 234.06053 181.45429 234.06445 181.42578 C 234.05857 179.12151 232.79165 176.73755 230.4375 177.03906 C 229.3892 177.17331 228.02128 177.80954 226.24805 179.16211 C 223.03915 181.60967 213.59801 186.67449 209.50195 189.75781 C 213.78381 182.99007 222.26615 172.3915 224.53125 168.84375 C 226.90413 165.12727 231.28319 157.54148 232.00391 152.83203 L 224.86328 149.98633 C 222.43052 151.71346 219.57803 154.90899 215.96094 159.61523 C 208.86764 168.84436 200.29995 182.52868 197.93555 180.61914 C 195.57115 178.70968 205.32457 164.39128 209.75781 155.16211 C 211.33264 151.88356 212.86023 148.70337 214.12891 145.68164 L 202.45508 141.02148 C 200.02678 144.58374 197.9352 148.47541 196.75391 151.01953 C 193.7984 157.38449 186.11113 175.84726 183.45117 174.89258 C 180.79117 173.93783 185.22106 158.02427 189.6543 149.11328 C 191.48261 145.43834 193.27503 141.52004 194.59961 137.86523 L 183.35352 133.36523 C 180.92924 136.9929 178.36434 141.79123 175.76367 147.83984 C 168.37487 165.02526 163.94183 183.48408 158.32617 182.84766 C 152.71076 182.21101 148.46326 176.29655 145.35156 172.46094 C 142.23986 168.62535 138.35199 161.05197 134.50977 158.82422 C 130.66764 156.59646 129.78963 157.23256 127.7207 157.55078 C 125.65185 157.86932 124.60943 157.14781 123.57422 160.09766 C 122.53913 163.0473 127.91678 169.59756 129.39453 175.00781 C 130.51411 179.10673 133.07954 188.80032 134.16602 194.75586 z" transform="matrix(2.0392075,0,0,2.0392075,735.64437,-247.43771)"/>
      <path style="fill:#ffffff" d="m 239.94336,156.37891 v -18.6836 l -130.36133,-35.89062 -4.54687,17.43164 z" transform="matrix(2.0392075,0,0,2.0392075,735.64437,-247.43769)"/>
      <path style="opacity:0.3;fill:#f0f0f0;fill-rule:evenodd" d="m 1178.4373,-214.79855 c 25.3058,0 45.6791,20.37329 45.6791,45.67904 v 4.07839 c 0,-25.30575 -20.3733,-45.67905 -45.6791,-45.67905 H 813.00892 c -25.30575,0 -45.67505,20.3733 -45.67505,45.67905 v -4.07839 c 0,-25.30575 20.3693,-45.67904 45.67505,-45.67904 z"/>
     </g>
    </g>
    <path style="opacity:0.2;fill-rule:evenodd" d="m 188.94335,199.35546 v 2.00002 c 0,12.4096 -9.99079,22.40039 -22.40041,22.40039 h -22.40037 v -2.00002 h 22.40037 c 12.40962,0 22.40041,-9.99078 22.40041,-22.40039 z m -224.000008,0 c 0,12.40961 9.988861,22.40039 22.398461,22.40039 H 99.343742 l 44.798828,44.79883 v 2.00001 L 99.343742,223.75587 H -12.658197 c -12.4096,0 -22.398461,-9.99079 -22.398461,-22.40039 z"/>
   </g>
  </g>
 </g>
</svg>
